svg/u23f1.svg

<svg viewBox="0 0 128 128" xmlns="http://www.w3.org/2000/svg">
  <g>
    <g>
      <g>
        <rect height="8.71" fill="#607D8B" transform="matrix(1.160332e-10 1 -1 1.160332e-10 86.6141 -41.334)" width="11.04" x="58.46" y="18.29"/>
        <path d="M55.19,6.84c0-0.7,0.39-1.35,1.02-1.66C57.3,4.63,59.54,4,64,4s6.7,0.63,7.8,1.18 c0.63,0.31,1.02,0.96,1.02,1.66v9.01c0,1.35-1.26,1.54-2.28,1.54l-13.6-0.16c-1.57-0.22-1.73-0.36-1.73-1.38V6.84z" fill="#B0BEC5"/>
      </g>
      <ellipse cx="64" cy="16.56" rx="8.65" ry="1.56" fill="#607D8B"/>
      <path d="M61.41,12.61c-0.1,0.48-1.23,0.78-1.48-0.32c-0.31-1.37-0.18-4.51,0.03-6.02 c0.11-0.8,1.49-1.07,1.59,0.42C61.63,7.9,61.51,12.13,61.41,12.61z" fill="#FBE9E7"/>
      <path d="M58.37,12.7c-0.08,1.02-1.86,2.3-1.95,0.53c-0.12-2.34-0.04-4.51,0.03-5.73 c0.08-1.46,1.89-1.73,1.91-0.18C58.37,8.77,58.46,11.49,58.37,12.7z" fill="#FBE9E7"/>
      <path d="M66.87,12.61c0.1,0.48,1.23,0.78,1.48-0.32c0.31-1.37,0.18-4.51-0.03-6.02 c-0.11-0.8-1.49-1.07-1.59,0.42C66.65,7.9,66.77,12.13,66.87,12.61z" fill="#78909C"/>
      <path d="M69.8,12.7c0.08,1.02,1.86,2.3,1.95,0.53c0.12-2.34,0.04-4.51-0.03-5.73 c-0.08-1.46-1.89-1.73-1.91-0.18C69.8,8.77,69.71,11.49,69.8,12.7z" fill="#607D8B"/>
    </g>
    <g>
      <g>
        <rect height="7.32" fill="#607D8B" transform="matrix(-0.7071 0.7071 -0.7071 -0.7071 200.74 -8.7131)" width="9.27" x="97.54" y="33.56"/>
        <path d="M106.34,22.61c0.42-0.42,1.03-0.57,1.59-0.38c0.98,0.33,2.68,1.28,5.33,3.93s3.6,4.35,3.93,5.33 c0.19,0.56,0.03,1.17-0.38,1.59l-5.35,5.35c-0.8,0.8-1.66,0.17-2.27-0.44l-7.99-8.18c-0.8-1.06-0.82-1.24-0.21-1.85L106.34,22.61 z" fill="#B0BEC5"/>
      </g>
      <ellipse cx="105.8" cy="33.62" rx="1.31" ry="7.27" fill="#607D8B" transform="matrix(0.7071 -0.7071 0.7071 0.7071 7.2147 84.6608)"/>
      <path d="M106.61,29.74c-0.35,0.23-1.19-0.27-0.69-1.07c0.63-1,2.57-2.79,3.6-3.56 c0.54-0.41,1.52,0.25,0.7,1.19C109.54,27.07,106.95,29.51,106.61,29.74z" fill="#FBE9E7"/>
      <path d="M104.75,27.98c-0.65,0.56-2.47,0.26-1.48-0.84c1.32-1.47,2.66-2.7,3.42-3.39 c0.92-0.82,2.15,0.1,1.24,1.03C107.09,25.65,105.52,27.32,104.75,27.98z" fill="#FBE9E7"/>
    </g>
    <circle cx="64" cy="73.06" r="50.94" fill="#B0BEC5"/>
    <circle cx="64" cy="73.06" r="40.87" fill="#FAFAFA"/>
    <g>
      <g>
        <path d="M64,43.08L64,43.08c-0.81,0-1.47-0.66-1.47-1.47v-4.4c0-0.81,0.66-1.47,1.47-1.47l0,0 c0.81,0,1.47,0.66,1.47,1.47v4.4C65.47,42.43,64.81,43.08,64,43.08z" fill="#B2947C"/>
        <path d="M64,110.67L64,110.67c-0.81,0-1.47-0.66-1.47-1.47v-4.4c0-0.81,0.66-1.47,1.47-1.47l0,0 c0.81,0,1.47,0.66,1.47,1.47v4.4C65.47,110.01,64.81,110.67,64,110.67z" fill="#B2947C"/>
      </g>
      <g>
        <path d="M99.99,74.68h-4.4c-0.81,0-1.47-0.66-1.47-1.47v0c0-0.81,0.66-1.47,1.47-1.47h4.4 c0.81,0,1.47,0.66,1.47,1.47v0C101.46,74.02,100.8,74.68,99.99,74.68z" fill="#B2947C"/>
        <path d="M32.41,74.68h-4.4c-0.81,0-1.47-0.66-1.47-1.47v0c0-0.81,0.66-1.47,1.47-1.47h4.4 c0.81,0,1.47,0.66,1.47,1.47v0C33.88,74.02,33.22,74.68,32.41,74.68z" fill="#B2947C"/>
      </g>
      <g>
        <path d="M64,43.08L64,43.08c-0.81,0-1.47-0.66-1.47-1.47v-4.4c0-0.81,0.66-1.47,1.47-1.47l0,0 c0.81,0,1.47,0.66,1.47,1.47v4.4C65.47,42.43,64.81,43.08,64,43.08z" fill="#B2947C"/>
        <path d="M64,110.67L64,110.67c-0.81,0-1.47-0.66-1.47-1.47v-4.4c0-0.81,0.66-1.47,1.47-1.47l0,0 c0.81,0,1.47,0.66,1.47,1.47v4.4C65.47,110.01,64.81,110.67,64,110.67z" fill="#B2947C"/>
      </g>
      <g>
        <path d="M46.93,46.58l-2.2-3.81c-0.41-0.7-0.17-1.6,0.54-2.01l0,0c0.7-0.41,1.6-0.17,2.01,0.54l2.2,3.81 c0.41,0.7,0.17,1.6-0.54,2.01l0,0C48.24,47.52,47.34,47.28,46.93,46.58z" fill="#B2947C"/>
        <path d="M80.73,105.11l-2.2-3.81c-0.41-0.7-0.16-1.6,0.54-2.01l0,0c0.7-0.41,1.6-0.16,2.01,0.54 l2.2,3.81c0.41,0.7,0.16,1.6-0.54,2.01l0,0C82.03,106.06,81.13,105.82,80.73,105.11z" fill="#B2947C"/>
      </g>
      <g>
        <path d="M46.93,46.58l-2.2-3.81c-0.41-0.7-0.17-1.6,0.54-2.01l0,0c0.7-0.41,1.6-0.17,2.01,0.54l2.2,3.81 c0.41,0.7,0.17,1.6-0.54,2.01l0,0C48.24,47.52,47.34,47.28,46.93,46.58z" fill="#B2947C"/>
        <path d="M80.73,105.11l-2.2-3.81c-0.41-0.7-0.16-1.6,0.54-2.01l0,0c0.7-0.41,1.6-0.16,2.01,0.54 l2.2,3.81c0.41,0.7,0.16,1.6-0.54,2.01l0,0C82.03,106.06,81.13,105.82,80.73,105.11z" fill="#B2947C"/>
      </g>
      <g>
        <path d="M35.91,58.68l-3.81-2.2c-0.7-0.41-0.94-1.3-0.54-2.01l0,0c0.41-0.7,1.3-0.94,2.01-0.54l3.81,2.2 c0.7,0.41,0.94,1.3,0.54,2.01l0,0C37.51,58.85,36.61,59.09,35.91,58.68z" fill="#B2947C"/>
        <path d="M94.44,92.48l-3.81-2.2c-0.7-0.41-0.94-1.3-0.54-2.01l0,0c0.41-0.7,1.3-0.94,2.01-0.54l3.81,2.2 c0.7,0.41,0.94,1.3,0.54,2.01l0,0C96.04,92.64,95.14,92.88,94.44,92.48z" fill="#B2947C"/>
      </g>
      <g>
        <path d="M79.06,47.12L79.06,47.12c-0.7-0.41-0.94-1.3-0.54-2.01l2.2-3.81c0.41-0.7,1.3-0.94,2.01-0.54 l0,0c0.7,0.41,0.94,1.3,0.54,2.01l-2.2,3.81C80.66,47.28,79.76,47.52,79.06,47.12z" fill="#B2947C"/>
        <path d="M45.27,105.65L45.27,105.65c-0.7-0.41-0.94-1.3-0.54-2.01l2.2-3.81c0.41-0.7,1.3-0.94,2.01-0.54 l0,0c0.7,0.41,0.94,1.3,0.54,2.01l-2.2,3.81C46.87,105.82,45.97,106.06,45.27,105.65z" fill="#B2947C"/>
      </g>
      <g>
        <path d="M90.09,58.15L90.09,58.15c-0.41-0.7-0.17-1.6,0.54-2.01l3.81-2.2c0.7-0.41,1.6-0.16,2.01,0.54 l0,0c0.41,0.7,0.16,1.6-0.54,2.01l-3.81,2.2C91.39,59.09,90.49,58.85,90.09,58.15z" fill="#B2947C"/>
        <path d="M31.56,91.94L31.56,91.94c-0.41-0.7-0.16-1.6,0.54-2.01l3.81-2.2c0.7-0.41,1.6-0.16,2.01,0.54 l0,0c0.41,0.7,0.16,1.6-0.54,2.01l-3.81,2.2C32.86,92.88,31.96,92.64,31.56,91.94z" fill="#B2947C"/>
      </g>
    </g>
    <circle cx="64" cy="56.12" r="9.79" opacity="0.42" fill="#82AEC0"/>
    <path d="M65.5,38.63c0,0,0.17-3.27-1.54-3.27s-1.54,3.27-1.54,3.27l-1.16,34.58h5.5L65.5,38.63z" fill="#563428"/>
    <circle cx="64" cy="73.16" r="4.11" fill="#563428"/>
    <path d="M52.04,31.4c-5.45,1.58-13.09,4-21.25,13.76c-8.07,9.65-9.74,20.86-10.25,28.6 c0,0-4.66,5.83-4.88,4.74c-1.76-8.45,1.79-27.33,11.07-37.31c10.8-11.62,24.85-15.74,29.92-16.51 C57.53,24.55,53.7,30.92,52.04,31.4z" opacity="0.64" fill="#ECEFF1"/>
  </g>
</svg>

<svg viewBox="0 0 128 128" xmlns="http://www.w3.org/2000/svg">
  <defs/>
  <path d="M68.324,17.126 L68.324,28.166 L59.614,28.166 L59.614,17.126 L68.324,17.126 Z" fill="#607D8B"/>
  <path d="M55.19,6.84 C55.19,6.14 55.58,5.49 56.21,5.18 C57.3,4.63 59.54,4 64,4 C68.46,4 70.7,4.63 71.8,5.18 C72.43,5.49 72.82,6.14 72.82,6.84 L72.82,15.85 C72.82,17.2 71.56,17.39 70.54,17.39 L56.94,17.23 C55.37,17.01 55.21,16.87 55.21,15.85 L55.21,6.84 Z" fill="#B0BEC5"/>
  <path d="M72.65,16.56 A8.65 1.56 0 1 1 55.35,16.56 A8.65 1.56 0 1 1 72.65,16.56 Z" fill="#607D8B"/>
  <path d="M61.41,12.61 C61.31,13.09 60.18,13.39 59.93,12.29 C59.62,10.92 59.75,7.78 59.96,6.27 C60.07,5.47 61.45,5.2 61.55,6.69 C61.63,7.9 61.51,12.13 61.41,12.61 Z" fill="#FBE9E7"/>
  <path d="M58.37,12.7 C58.29,13.72 56.51,15 56.42,13.23 C56.3,10.89 56.38,8.72 56.45,7.5 C56.53,6.04 58.34,5.77 58.36,7.32 C58.37,8.77 58.46,11.49 58.37,12.7 Z" fill="#FBE9E7"/>
  <path d="M66.87,12.61 C66.97,13.09 68.1,13.39 68.35,12.29 C68.66,10.92 68.53,7.78 68.32,6.27 C68.21,5.47 66.83,5.2 66.73,6.69 C66.65,7.9 66.77,12.13 66.87,12.61 Z" fill="#78909C"/>
  <path d="M69.8,12.7 C69.88,13.72 71.66,15 71.75,13.23 C71.87,10.89 71.79,8.72 71.72,7.5 C71.64,6.04 69.83,5.77 69.81,7.32 C69.8,8.77 69.71,11.49 69.8,12.7 Z" fill="#607D8B"/>
  <path d="M108.039,36.527 L101.484,43.082 L96.308,37.906 L102.863,31.351 L108.039,36.527 Z" fill="#607D8B"/>
  <path d="M106.34,22.61 C106.76,22.19 107.37,22.04 107.93,22.23 C108.91,22.56 110.61,23.51 113.26,26.16 C115.91,28.81 116.86,30.51 117.19,31.49 C117.38,32.05 117.22,32.66 116.81,33.08 L111.46,38.43 C110.66,39.23 109.8,38.6 109.19,37.99 L101.2,29.81 C100.4,28.75 100.38,28.57 100.99,27.96 L106.34,22.61 Z" fill="#B0BEC5"/>
  <path d="M106.725,32.696 C109.564,35.535 111.451,38.251 110.939,38.763 C110.428,39.275 107.711,37.388 104.872,34.549 C102.033,31.71 100.146,28.993 100.658,28.482 C101.17,27.97 103.886,29.857 106.725,32.696 Z" fill="#607D8B"/>
  <path d="M106.61,29.74 C106.26,29.97 105.42,29.47 105.92,28.67 C106.55,27.67 108.49,25.88 109.52,25.11 C110.06,24.7 111.04,25.36 110.22,26.3 C109.54,27.07 106.95,29.51 106.61,29.74 Z" fill="#FBE9E7"/>
  <path d="M104.75,27.98 C104.1,28.54 102.28,28.24 103.27,27.14 C104.59,25.67 105.93,24.44 106.69,23.75 C107.61,22.93 108.84,23.85 107.93,24.78 C107.09,25.65 105.52,27.32 104.75,27.98 Z" fill="#FBE9E7"/>
  <path d="M114.94,73.06 A50.94 50.94 0 1 1 13.06,73.06 A50.94 50.94 0 1 1 114.94,73.06 Z" fill="#B0BEC5"/>
  <path d="M104.87,73.06 A40.87 40.87 0 1 1 23.13,73.06 A40.87 40.87 0 1 1 104.87,73.06 Z" fill="#FAFAFA"/>
  <path d="M64,43.08 L64,43.08 C63.19,43.08 62.53,42.42 62.53,41.61 L62.53,37.21 C62.53,36.4 63.19,35.74 64,35.74 L64,35.74 C64.81,35.74 65.47,36.4 65.47,37.21 L65.47,41.61 C65.47,42.43 64.81,43.08 64,43.08 Z" fill="#B2947C"/>
  <path d="M64,110.67 L64,110.67 C63.19,110.67 62.53,110.01 62.53,109.2 L62.53,104.8 C62.53,103.99 63.19,103.33 64,103.33 L64,103.33 C64.81,103.33 65.47,103.99 65.47,104.8 L65.47,109.2 C65.47,110.01 64.81,110.67 64,110.67 Z" fill="#B2947C"/>
  <path d="M99.99,74.68 L95.59,74.68 C94.78,74.68 94.12,74.02 94.12,73.21 L94.12,73.21 C94.12,72.4 94.78,71.74 95.59,71.74 L99.99,71.74 C100.8,71.74 101.46,72.4 101.46,73.21 L101.46,73.21 C101.46,74.02 100.8,74.68 99.99,74.68 Z" fill="#B2947C"/>
  <path d="M32.41,74.68 L28.01,74.68 C27.2,74.68 26.54,74.02 26.54,73.21 L26.54,73.21 C26.54,72.4 27.2,71.74 28.01,71.74 L32.41,71.74 C33.22,71.74 33.88,72.4 33.88,73.21 L33.88,73.21 C33.88,74.02 33.22,74.68 32.41,74.68 Z" fill="#B2947C"/>
  <path d="M64,43.08 L64,43.08 C63.19,43.08 62.53,42.42 62.53,41.61 L62.53,37.21 C62.53,36.4 63.19,35.74 64,35.74 L64,35.74 C64.81,35.74 65.47,36.4 65.47,37.21 L65.47,41.61 C65.47,42.43 64.81,43.08 64,43.08 Z" fill="#B2947C"/>
  <path d="M64,110.67 L64,110.67 C63.19,110.67 62.53,110.01 62.53,109.2 L62.53,104.8 C62.53,103.99 63.19,103.33 64,103.33 L64,103.33 C64.81,103.33 65.47,103.99 65.47,104.8 L65.47,109.2 C65.47,110.01 64.81,110.67 64,110.67 Z" fill="#B2947C"/>
  <path d="M46.93,46.58 L44.73,42.77 C44.32,42.07 44.56,41.17 45.27,40.76 L45.27,40.76 C45.97,40.35 46.87,40.59 47.28,41.3 L49.48,45.11 C49.89,45.81 49.65,46.71 48.94,47.12 L48.94,47.12 C48.24,47.52 47.34,47.28 46.93,46.58 Z" fill="#B2947C"/>
  <path d="M80.73,105.11 L78.53,101.3 C78.12,100.6 78.37,99.7 79.07,99.29 L79.07,99.29 C79.77,98.88 80.67,99.13 81.08,99.83 L83.28,103.64 C83.69,104.34 83.44,105.24 82.74,105.65 L82.74,105.65 C82.03,106.06 81.13,105.82 80.73,105.11 Z" fill="#B2947C"/>
  <path d="M46.93,46.58 L44.73,42.77 C44.32,42.07 44.56,41.17 45.27,40.76 L45.27,40.76 C45.97,40.35 46.87,40.59 47.28,41.3 L49.48,45.11 C49.89,45.81 49.65,46.71 48.94,47.12 L48.94,47.12 C48.24,47.52 47.34,47.28 46.93,46.58 Z" fill="#B2947C"/>
  <path d="M80.73,105.11 L78.53,101.3 C78.12,100.6 78.37,99.7 79.07,99.29 L79.07,99.29 C79.77,98.88 80.67,99.13 81.08,99.83 L83.28,103.64 C83.69,104.34 83.44,105.24 82.74,105.65 L82.74,105.65 C82.03,106.06 81.13,105.82 80.73,105.11 Z" fill="#B2947C"/>
  <path d="M35.91,58.68 L32.1,56.48 C31.4,56.07 31.16,55.18 31.56,54.47 L31.56,54.47 C31.97,53.77 32.86,53.53 33.57,53.93 L37.38,56.13 C38.08,56.54 38.32,57.43 37.92,58.14 L37.92,58.14 C37.51,58.85 36.61,59.09 35.91,58.68 Z" fill="#B2947C"/>
  <path d="M94.44,92.48 L90.63,90.28 C89.93,89.87 89.69,88.98 90.09,88.27 L90.09,88.27 C90.5,87.57 91.39,87.33 92.1,87.73 L95.91,89.93 C96.61,90.34 96.85,91.23 96.45,91.94 L96.45,91.94 C96.04,92.64 95.14,92.88 94.44,92.48 Z" fill="#B2947C"/>
  <path d="M79.06,47.12 L79.06,47.12 C78.36,46.71 78.12,45.82 78.52,45.11 L80.72,41.3 C81.13,40.6 82.02,40.36 82.73,40.76 L82.73,40.76 C83.43,41.17 83.67,42.06 83.27,42.77 L81.07,46.58 C80.66,47.28 79.76,47.52 79.06,47.12 Z" fill="#B2947C"/>
  <path d="M45.27,105.65 L45.27,105.65 C44.57,105.24 44.33,104.35 44.73,103.64 L46.93,99.83 C47.34,99.13 48.23,98.89 48.94,99.29 L48.94,99.29 C49.64,99.7 49.88,100.59 49.48,101.3 L47.28,105.11 C46.87,105.82 45.97,106.06 45.27,105.65 Z" fill="#B2947C"/>
  <path d="M90.09,58.15 L90.09,58.15 C89.68,57.45 89.92,56.55 90.63,56.14 L94.44,53.94 C95.14,53.53 96.04,53.78 96.45,54.48 L96.45,54.48 C96.86,55.18 96.61,56.08 95.91,56.49 L92.1,58.69 C91.39,59.09 90.49,58.85 90.09,58.15 Z" fill="#B2947C"/>
  <path d="M31.56,91.94 L31.56,91.94 C31.15,91.24 31.4,90.34 32.1,89.93 L35.91,87.73 C36.61,87.32 37.51,87.57 37.92,88.27 L37.92,88.27 C38.33,88.97 38.08,89.87 37.38,90.28 L33.57,92.48 C32.86,92.88 31.96,92.64 31.56,91.94 Z" fill="#B2947C"/>
  <path d="M73.79,56.12 A9.79 9.79 0 1 1 54.21,56.12 A9.79 9.79 0 1 1 73.79,56.12 Z" fill="#82AEC0" opacity="0.42"/>
  <path d="M65.5,38.63 C65.5,38.63 65.67,35.36 63.96,35.36 C62.25,35.36 62.42,38.63 62.42,38.63 L61.26,73.21 L66.76,73.21 L65.5,38.63 Z" fill="#563428"/>
  <path d="M68.11,73.16 A4.11 4.11 0 1 1 59.89,73.16 A4.11 4.11 0 1 1 68.11,73.16 Z" fill="#563428"/>
  <path d="M52.04,31.4 C46.59,32.98 38.95,35.4 30.79,45.16 C22.72,54.81 21.05,66.02 20.54,73.76 C20.54,73.76 15.88,79.59 15.66,78.5 C13.9,70.05 17.45,51.17 26.73,41.19 C37.53,29.57 51.58,25.45 56.65,24.68 C57.53,24.55 53.7,30.92 52.04,31.4 Z" fill="#ECEFF1" opacity="0.64"/>
</svg>
